assets/components_previews/general/dark/label.svg

<svg xmlns="http://www.w3.org/2000/svg" width="320" height="232" fill="none" viewBox="0 0 320 232"><g filter="url(#a)"><rect width="160" height="108" x="80" y="62" fill="#0E0F10" rx="12"/><path fill="#5F43D0" d="M126.576 114.12c-1.824 0-3.192-1.02-3.336-2.868h1.836c.132.996.612 1.452 1.428 1.452.696 0 1.236-.42 1.236-1.224 0-.768-.42-1.284-1.5-1.284h-.768v-1.392h.732c.936 0 1.332-.456 1.332-1.104 0-.6-.288-1.044-1.056-1.044-.66 0-1.188.396-1.296 1.212h-1.848c.204-1.62 1.38-2.628 3.204-2.628 1.812 0 2.94.888 2.94 2.316 0 .9-.54 1.572-1.152 1.86.864.288 1.368 1.14 1.368 2.16 0 1.572-1.344 2.544-3.12 2.544m7.035 0c-1.968 0-3.312-1.032-3.312-2.568 0-1.032.576-1.836 1.488-2.124-.804-.264-1.248-.912-1.248-1.812 0-1.44 1.188-2.376 3.06-2.376 1.86 0 3.06.936 3.06 2.376 0 .9-.444 1.548-1.26 1.812.924.288 1.5 1.092 1.5 2.136 0 1.536-1.332 2.556-3.288 2.556m-.012-5.268c.648 0 1.116-.42 1.116-1.104s-.456-1.092-1.128-1.092c-.66 0-1.104.42-1.104 1.092 0 .684.468 1.104 1.116 1.104m0 3.852c.84 0 1.344-.468 1.344-1.284 0-.804-.54-1.272-1.344-1.272-.816 0-1.344.468-1.344 1.272 0 .828.504 1.284 1.344 1.284m8.003 1.296v-1.632h-4.2v-1.416l4.248-5.592h1.824v5.592h.864v1.416h-.864V114zm-2.196-3.048h2.292v-3.036zM151.788 86c.228-2.64 1.332-5.148 2.952-7.224h-4.452V77.36h6.372v1.32c-1.632 2.328-2.676 4.644-2.892 7.32zm5.229 0v-1.44c3.168-2.58 4.14-3.6 4.14-4.788 0-.696-.396-1.116-1.068-1.116-.708 0-1.2.456-1.308 1.212h-1.848c.18-1.632 1.404-2.628 3.228-2.628 1.848 0 2.952 1.008 2.952 2.7 0 1.488-.792 2.592-3.36 4.644h3.528V86zm10.212.12c-2.28 0-3.564-1.536-3.564-4.248 0-2.844 1.428-4.632 3.672-4.632 1.68 0 2.796.936 3.036 2.508h-1.836c-.084-.708-.552-1.092-1.212-1.092-1.14 0-1.704.924-1.74 2.904.444-.636 1.164-1.008 2.088-1.008 1.68 0 2.82 1.104 2.82 2.748 0 1.704-1.272 2.82-3.264 2.82m-.132-1.416c.816 0 1.44-.48 1.44-1.392s-.648-1.368-1.464-1.368c-.84 0-1.488.468-1.488 1.344 0 .9.696 1.416 1.512 1.416M175.3 126v-1.44c3.168-2.58 4.14-3.6 4.14-4.788 0-.696-.396-1.116-1.068-1.116-.708 0-1.2.456-1.308 1.212h-1.848c.18-1.632 1.404-2.628 3.228-2.628 1.848 0 2.952 1.008 2.952 2.7 0 1.488-.792 2.592-3.36 4.644h3.528V126zm9.968.12c-1.872 0-2.904-1.092-3.084-2.688h1.836c.084.852.504 1.272 1.308 1.272 1.104 0 1.488-.792 1.524-2.832-.444.54-1.14.84-1.992.84-1.656 0-2.808-1.104-2.808-2.688 0-1.668 1.296-2.784 3.252-2.784 2.304 0 3.588 1.524 3.588 4.32 0 2.844-1.32 4.56-3.624 4.56m.204-4.8c.888 0 1.344-.54 1.344-1.272 0-.768-.456-1.392-1.344-1.392s-1.38.588-1.38 1.344.504 1.32 1.38 1.32m7.123 4.8c-1.776 0-2.976-.948-3.24-2.604h1.836c.12.732.696 1.188 1.356 1.188.744 0 1.248-.516 1.248-1.572 0-1.008-.468-1.56-1.212-1.56-.432 0-.84.192-1.092.636h-1.68l.444-4.848h4.968v1.416h-3.348l-.144 1.8c.336-.216.732-.324 1.248-.324 1.644 0 2.772 1.14 2.772 2.904 0 1.872-1.26 2.964-3.156 2.964"/><rect width="18" height="34" x="125" y="120" fill="#2F1C78" rx="4"/><rect width="18" height="62" x="151" y="92" fill="#2F1C78" rx="4"/><rect width="18" height="22" x="177" y="132" fill="#2F1C78" rx="4"/></g><defs><filter id="a" width="200" height="148" x="60" y="54" color-interpolation-filters="sRGB" filterUnits="userSpaceOnUse"><feFlood flood-opacity="0" result="BackgroundImageFix"/><feColorMatrix in="SourceAlpha" result="hardAlpha" values="0 0 0 0 0 0 0 0 0 0 0 0 0 0 0 0 0 0 127 0"/><feOffset dy="12"/><feGaussianBlur stdDeviation="10"/><feComposite in2="hardAlpha" operator="out"/><feColorMatrix values="0 0 0 0 0 0 0 0 0 0 0 0 0 0 0 0 0 0 0.03 0"/><feBlend in2="BackgroundImageFix" result="effect1_dropShadow_10196_62744"/><feColorMatrix in="SourceAlpha" result="hardAlpha" values="0 0 0 0 0 0 0 0 0 0 0 0 0 0 0 0 0 0 127 0"/><feOffset dy="2"/><feGaussianBlur stdDeviation="3"/><feComposite in2="hardAlpha" operator="out"/><feColorMatrix values="0 0 0 0 0 0 0 0 0 0 0 0 0 0 0 0 0 0 0.05 0"/><feBlend in2="effect1_dropShadow_10196_62744" result="effect2_dropShadow_10196_62744"/><feBlend in="SourceGraphic" in2="effect2_dropShadow_10196_62744" result="shape"/></filter></defs></svg>

<svg width="320" height="232" viewBox="0 0 320 232" fill="none" xmlns="http://www.w3.org/2000/svg">
<g filter="url(#filter0_dd_10196_62744)">
<rect x="80" y="62" width="160" height="108" rx="12" fill="#0E0F10"/>
<path d="M126.576 114.12C124.752 114.12 123.384 113.1 123.24 111.252H125.076C125.208 112.248 125.688 112.704 126.504 112.704C127.2 112.704 127.74 112.284 127.74 111.48C127.74 110.712 127.32 110.196 126.24 110.196H125.472V108.804H126.204C127.14 108.804 127.536 108.348 127.536 107.7C127.536 107.1 127.248 106.656 126.48 106.656C125.82 106.656 125.292 107.052 125.184 107.868H123.336C123.54 106.248 124.716 105.24 126.54 105.24C128.352 105.24 129.48 106.128 129.48 107.556C129.48 108.456 128.94 109.128 128.328 109.416C129.192 109.704 129.696 110.556 129.696 111.576C129.696 113.148 128.352 114.12 126.576 114.12ZM133.611 114.12C131.643 114.12 130.299 113.088 130.299 111.552C130.299 110.52 130.875 109.716 131.787 109.428C130.983 109.164 130.539 108.516 130.539 107.616C130.539 106.176 131.727 105.24 133.599 105.24C135.459 105.24 136.659 106.176 136.659 107.616C136.659 108.516 136.215 109.164 135.399 109.428C136.323 109.716 136.899 110.52 136.899 111.564C136.899 113.1 135.567 114.12 133.611 114.12ZM133.599 108.852C134.247 108.852 134.715 108.432 134.715 107.748C134.715 107.064 134.259 106.656 133.587 106.656C132.927 106.656 132.483 107.076 132.483 107.748C132.483 108.432 132.951 108.852 133.599 108.852ZM133.599 112.704C134.439 112.704 134.943 112.236 134.943 111.42C134.943 110.616 134.403 110.148 133.599 110.148C132.783 110.148 132.255 110.616 132.255 111.42C132.255 112.248 132.759 112.704 133.599 112.704ZM141.602 114V112.368H137.402V110.952L141.65 105.36H143.474V110.952H144.338V112.368H143.474V114H141.602ZM139.406 110.952H141.698V107.916L139.406 110.952Z" fill="#5F43D0"/>
<path d="M151.788 86C152.016 83.36 153.12 80.852 154.74 78.776H150.288V77.36H156.66V78.68C155.028 81.008 153.984 83.324 153.768 86H151.788ZM157.017 86V84.56C160.185 81.98 161.157 80.96 161.157 79.772C161.157 79.076 160.761 78.656 160.089 78.656C159.381 78.656 158.889 79.112 158.781 79.868H156.933C157.113 78.236 158.337 77.24 160.161 77.24C162.009 77.24 163.113 78.248 163.113 79.94C163.113 81.428 162.321 82.532 159.753 84.584H163.281V86H157.017ZM167.229 86.12C164.949 86.12 163.665 84.584 163.665 81.872C163.665 79.028 165.093 77.24 167.337 77.24C169.017 77.24 170.133 78.176 170.373 79.748H168.537C168.453 79.04 167.985 78.656 167.325 78.656C166.185 78.656 165.621 79.58 165.585 81.56C166.029 80.924 166.749 80.552 167.673 80.552C169.353 80.552 170.493 81.656 170.493 83.3C170.493 85.004 169.221 86.12 167.229 86.12ZM167.097 84.704C167.913 84.704 168.537 84.224 168.537 83.312C168.537 82.4 167.889 81.944 167.073 81.944C166.233 81.944 165.585 82.412 165.585 83.288C165.585 84.188 166.281 84.704 167.097 84.704Z" fill="#5F43D0"/>
<path d="M175.3 126V124.56C178.468 121.98 179.44 120.96 179.44 119.772C179.44 119.076 179.044 118.656 178.372 118.656C177.664 118.656 177.172 119.112 177.064 119.868H175.216C175.396 118.236 176.62 117.24 178.444 117.24C180.292 117.24 181.396 118.248 181.396 119.94C181.396 121.428 180.604 122.532 178.036 124.584H181.564V126H175.3ZM185.268 126.12C183.396 126.12 182.364 125.028 182.184 123.432H184.02C184.104 124.284 184.524 124.704 185.328 124.704C186.432 124.704 186.816 123.912 186.852 121.872C186.408 122.412 185.712 122.712 184.86 122.712C183.204 122.712 182.052 121.608 182.052 120.024C182.052 118.356 183.348 117.24 185.304 117.24C187.608 117.24 188.892 118.764 188.892 121.56C188.892 124.404 187.572 126.12 185.268 126.12ZM185.472 121.32C186.36 121.32 186.816 120.78 186.816 120.048C186.816 119.28 186.36 118.656 185.472 118.656C184.584 118.656 184.092 119.244 184.092 120C184.092 120.756 184.596 121.32 185.472 121.32ZM192.595 126.12C190.819 126.12 189.619 125.172 189.355 123.516H191.191C191.311 124.248 191.887 124.704 192.547 124.704C193.291 124.704 193.795 124.188 193.795 123.132C193.795 122.124 193.327 121.572 192.583 121.572C192.151 121.572 191.743 121.764 191.491 122.208H189.811L190.255 117.36H195.223V118.776H191.875L191.731 120.576C192.067 120.36 192.463 120.252 192.979 120.252C194.623 120.252 195.751 121.392 195.751 123.156C195.751 125.028 194.491 126.12 192.595 126.12Z" fill="#5F43D0"/>
<rect x="125" y="120" width="18" height="34" rx="4" fill="#2F1C78"/>
<rect x="151" y="92" width="18" height="62" rx="4" fill="#2F1C78"/>
<rect x="177" y="132" width="18" height="22" rx="4" fill="#2F1C78"/>
</g>
<defs>
<filter id="filter0_dd_10196_62744" x="60" y="54" width="200" height="148" filterUnits="userSpaceOnUse" color-interpolation-filters="sRGB">
<feFlood flood-opacity="0" result="BackgroundImageFix"/>
<feColorMatrix in="SourceAlpha" type="matrix" values="0 0 0 0 0 0 0 0 0 0 0 0 0 0 0 0 0 0 127 0" result="hardAlpha"/>
<feOffset dy="12"/>
<feGaussianBlur stdDeviation="10"/>
<feComposite in2="hardAlpha" operator="out"/>
<feColorMatrix type="matrix" values="0 0 0 0 0 0 0 0 0 0 0 0 0 0 0 0 0 0 0.03 0"/>
<feBlend mode="normal" in2="BackgroundImageFix" result="effect1_dropShadow_10196_62744"/>
<feColorMatrix in="SourceAlpha" type="matrix" values="0 0 0 0 0 0 0 0 0 0 0 0 0 0 0 0 0 0 127 0" result="hardAlpha"/>
<feOffset dy="2"/>
<feGaussianBlur stdDeviation="3"/>
<feComposite in2="hardAlpha" operator="out"/>
<feColorMatrix type="matrix" values="0 0 0 0 0 0 0 0 0 0 0 0 0 0 0 0 0 0 0.05 0"/>
<feBlend mode="normal" in2="effect1_dropShadow_10196_62744" result="effect2_dropShadow_10196_62744"/>
<feBlend mode="normal" in="SourceGraphic" in2="effect2_dropShadow_10196_62744" result="shape"/>
</filter>
</defs>
</svg>
